lib/logo_tmp/nrk-logo-nrk-trafikk-with-bg.svg

<svg width="120" height="28" viewBox="0 0 120 28" fill="none" xmlns="http://www.w3.org/2000/svg">
<rect width="119.333" height="28" fill="#1767CE"/>
<path d="M6.66663 20.9998V7.00111H11.26V20.9998H6.66663ZM17.5094 9.22908L20.151 20.9998H15.124L11.9697 7.00111H14.7892C15.4357 6.99272 16.063 7.22063 16.5535 7.64196C17.0449 8.04562 17.3824 8.60598 17.5094 9.22908ZM20.8411 20.9998V7.00111H25.4345V20.9998H20.8411ZM28.9038 12.3246C28.4089 12.3294 27.9218 12.1999 27.4946 11.95C27.073 11.7063 26.7229 11.3561 26.4793 10.9345C26.229 10.5072 26.0995 10.0201 26.1044 9.52487C26.0988 9.03271 26.2284 8.54845 26.4793 8.125C26.7255 7.70799 27.0752 7.36161 27.4946 7.11944C27.922 6.86976 28.4089 6.74027 28.9038 6.74479C29.3959 6.73949 29.8799 6.86909 30.3035 7.11944C30.7187 7.36374 31.0647 7.70982 31.309 8.125C31.5596 8.54857 31.6892 9.03275 31.6838 9.52487C31.6884 10.02 31.5589 10.5071 31.309 10.9345C31.0673 11.3543 30.7209 11.7042 30.3035 11.95C29.8799 12.2008 29.3955 12.3304 28.9032 12.3246H28.9038ZM32.3935 20.9998V7.00111H36.9873V20.9998H32.3935ZM42.8027 14.6511C42.8156 14.6647 42.9141 14.8257 43.0983 15.1342C43.2826 15.4426 43.5224 15.837 43.8179 16.3172C44.1136 16.7972 44.4257 17.3065 44.754 17.8452C45.0824 18.3839 45.3913 18.8933 45.6809 19.3732C45.9694 19.8532 46.298 20.3954 46.6666 20.9998H41.6198C41.3041 20.4872 41.0181 20.0239 40.7618 19.6098C40.5056 19.1958 40.2331 18.7489 39.9444 18.2691C39.6551 17.7898 39.369 17.3231 39.0862 16.8692C38.8034 16.4153 38.5604 16.0177 38.3571 15.6764C38.153 15.3349 38.0116 15.1048 37.9329 14.9863C37.7379 14.6922 37.6225 14.3525 37.5981 14.0005C37.6176 13.6626 37.7263 13.336 37.9132 13.0538C37.992 12.9224 38.1366 12.689 38.3469 12.3538C38.5572 12.0186 38.8036 11.6211 39.0862 11.161C39.3688 10.701 39.6549 10.231 39.9444 9.75127C40.234 9.27151 40.5064 8.82128 40.7618 8.40066C41.0186 7.98048 41.3046 7.51385 41.6198 7.00079H46.6666L42.7629 13.3692C42.6421 13.5583 42.574 13.7762 42.5657 14.0005C42.5787 14.2359 42.6609 14.4622 42.8019 14.6511H42.8027Z" fill="white"/>
<path d="M63.1376 7.06264H52V8.79603H56.538V21.0479H58.6188V8.79603H63.1373L63.1376 7.06264Z" fill="#D4EEFC"/>
<path d="M67.2003 10.9334C66.8298 11.0324 66.4758 11.185 66.1499 11.3864C65.8119 11.5962 65.4995 11.8441 65.2186 12.1251C65.1717 12.1717 65.126 12.2236 65.0798 12.2725V10.8054L63.0584 11.1008V21.048H65.0798V13.6063C65.2299 13.5021 65.3854 13.4055 65.5455 13.3171C65.7436 13.2084 65.9487 13.1128 66.1595 13.0311C66.3646 12.9524 66.5724 12.8834 66.7842 12.8247C67.0016 12.7643 67.2237 12.7213 67.4481 12.6963C67.6882 12.6699 67.9301 12.6633 68.1714 12.6766L68.4092 10.825C68.003 10.7962 67.5948 10.8328 67.2003 10.9334Z" fill="#D4EEFC"/>
<path d="M78.5758 19.8068C78.431 19.8201 78.285 19.7984 78.1505 19.7435C78.0159 19.6886 77.8966 19.6022 77.8029 19.4916C77.6192 19.176 77.5427 18.8099 77.5849 18.4477L77.6245 14.39C77.6289 13.9646 77.5756 13.5406 77.466 13.1293C77.3698 12.7687 77.2087 12.4283 76.9904 12.1248C76.7699 11.8279 76.4898 11.5798 76.168 11.396C75.794 11.1848 75.3897 11.032 74.969 10.9429C74.4547 10.8328 73.9295 10.78 73.4033 10.7857C72.986 10.7854 72.5692 10.8116 72.1552 10.8641C71.7639 10.913 71.3764 10.9887 70.9955 11.0907C70.6425 11.1858 70.2952 11.3009 69.9554 11.4354L69.7172 13.1096C70.0475 12.9914 70.3614 12.893 70.6586 12.8142C70.9559 12.7354 71.2432 12.6697 71.5207 12.6172C71.7925 12.5654 72.0671 12.5294 72.3431 12.5092C72.6137 12.4893 72.8814 12.4793 73.1461 12.4793C73.5502 12.4708 73.9536 12.5171 74.345 12.6172C74.6305 12.6884 74.893 12.8307 75.1077 13.0308C75.2989 13.2256 75.4355 13.4667 75.5041 13.7301C75.5889 14.0549 75.629 14.3896 75.6233 14.7252L75.621 15.2176L73.3043 15.3735C72.512 15.3957 71.7315 15.5696 71.0055 15.8857C70.4622 16.122 69.9932 16.4997 69.6479 16.9789C69.355 17.4054 69.1995 17.9103 69.202 18.4267C69.1983 18.9112 69.3176 19.3888 69.5488 19.8153C69.7913 20.2535 70.156 20.6126 70.5991 20.8495C71.1398 21.129 71.744 21.2647 72.353 21.2434C72.9238 21.2564 73.4919 21.1629 74.028 20.9676C74.4913 20.7875 74.9151 20.5199 75.2762 20.1797C75.4133 20.049 75.5433 19.9113 75.6659 19.7671C75.7045 19.971 75.7771 20.167 75.8806 20.3472C76.0571 20.6488 76.3288 20.8842 76.6535 21.0169C77.0123 21.1601 77.3964 21.2305 77.7831 21.2237C77.902 21.2237 78.0177 21.2204 78.1302 21.2139C78.2404 21.2075 78.3498 21.191 78.4569 21.1646C78.5626 21.1383 78.6581 21.1154 78.7443 21.0957C78.8219 21.0785 78.8981 21.0554 78.9722 21.0267L79.1905 19.707C79.0809 19.7442 78.968 19.7706 78.8532 19.7858C78.7613 19.7986 78.6687 19.8056 78.5758 19.8068ZM75.6055 18.6102C75.5046 18.7228 75.3941 18.8266 75.2752 18.9204C75.0603 19.0892 74.8277 19.2345 74.5816 19.3537C74.3364 19.4723 74.0766 19.5584 73.8089 19.6098C73.5314 19.6631 73.2494 19.6895 72.9668 19.6886C72.6437 19.6978 72.3224 19.6373 72.0251 19.5113C71.7833 19.4071 71.5794 19.2318 71.4407 19.0091C71.3033 18.773 71.2347 18.5036 71.2425 18.231C71.2234 17.9026 71.314 17.5772 71.5002 17.3052C71.7159 17.0549 72.0083 16.8819 72.3325 16.8128C72.8388 16.6944 73.3584 16.6414 73.8784 16.6552H75.6137L75.6055 18.6102Z" fill="#D4EEFC"/>
<path d="M86.0369 6.33391C85.8321 6.29452 85.6241 6.26497 85.4127 6.24527C85.2013 6.22557 84.9767 6.21569 84.7388 6.21569C84.3083 6.21295 83.8801 6.2795 83.4709 6.4127C83.0819 6.53986 82.7263 6.75186 82.4304 7.03318C82.124 7.32948 81.8873 7.68929 81.7368 8.08698C81.5616 8.56639 81.4775 9.07401 81.4891 9.58397V11.0022H80.0028V12.5386H81.4891V21.0479H83.5105V12.5386H86.2849V11.0022H83.5105V9.36733C83.5061 9.14261 83.5431 8.919 83.6195 8.70746C83.6842 8.52871 83.7892 8.367 83.9263 8.2347C84.07 8.10351 84.2435 8.0089 84.432 7.95894C84.6545 7.89764 84.8846 7.86779 85.1154 7.8703C85.2743 7.8703 85.4255 7.87721 85.5715 7.89001C85.7175 7.90282 85.8586 7.92282 85.9976 7.94908C86.1367 7.97535 86.2681 8.00161 86.394 8.02787C86.5059 8.05002 86.6154 8.08303 86.721 8.12637L86.6417 6.49149C86.4438 6.42585 86.2417 6.37322 86.0369 6.33391Z" fill="#D4EEFC"/>
<path d="M88.2464 21.048H90.2678V10.8054L88.2464 11.1008V21.048Z" fill="#D4EEFC"/>
<path d="M89.9805 6.67844C89.7748 6.55352 89.5378 6.48869 89.2968 6.49133C89.0527 6.48938 88.8127 6.55409 88.6031 6.67844C88.3965 6.79877 88.2229 6.96791 88.0978 7.17088C87.9719 7.37527 87.9067 7.61085 87.9095 7.85047C87.9074 8.09309 87.9725 8.3316 88.0978 8.53987C88.219 8.7459 88.3935 8.91593 88.6031 9.03231C88.8148 9.15064 89.054 9.21173 89.2968 9.20956C89.5365 9.21239 89.7727 9.15119 89.9805 9.03231C90.1844 8.91505 90.3522 8.74481 90.466 8.53987C90.5851 8.3295 90.6466 8.09181 90.6444 7.85047C90.6473 7.61215 90.5857 7.37742 90.466 7.17088C90.3483 6.96887 90.1813 6.79953 89.9805 6.67844Z" fill="#D4EEFC"/>
<path d="M101.98 11.0021H99.5029L96.1118 14.7053H95.3808V6.17623L93.3594 6.4717V21.0479H95.3808V16.222H95.4139L99.463 21.0479H102.079L97.2718 15.6639L101.98 11.0021Z" fill="#D4EEFC"/>
<path d="M107.676 15.6121L112.384 10.9503H109.907L106.516 14.6535H105.785V6.12476L103.764 6.42023V20.9964H105.785V16.1705H105.818L109.867 20.9964H112.483L107.676 15.6121Z" fill="#D4EEFC"/>
</svg>

<svg xmlns="http://www.w3.org/2000/svg" viewBox="0 0 120 28"><path fill="#1767CE" d="M0 0h119.333v28H0z"/><path fill="#fff" d="M6.667 21V7h4.593V21H6.667ZM17.509 9.23 20.151 21h-5.027L11.97 7h2.82a2.655 2.655 0 0 1 1.764.641c.49.404.828.964.955 1.587ZM20.841 21V7h4.593V21h-4.593Zm8.063-8.675a2.778 2.778 0 0 1-2.425-1.39 2.735 2.735 0 0 1-.375-1.41 2.686 2.686 0 0 1 .375-1.4 2.812 2.812 0 0 1 3.825-1.006c.415.245.76.59 1.005 1.006.25.424.38.908.375 1.4.004.495-.125.982-.375 1.41a2.8 2.8 0 0 1-1.006 1.015c-.423.25-.908.38-1.4.375ZM32.394 21V7h4.593V21h-4.593Zm10.409-6.349c.013.014.111.175.295.483.185.309.424.703.72 1.183a373.133 373.133 0 0 1 1.863 3.056c.288.48.617 1.022.986 1.627H41.62a744.12 744.12 0 0 0-.858-1.39c-.256-.414-.529-.861-.818-1.34-.289-.48-.575-.947-.858-1.4a71.148 71.148 0 0 1-.729-1.194 20.758 20.758 0 0 0-.424-.69 2.04 2.04 0 0 1-.335-.986c.02-.337.128-.664.315-.946.079-.132.224-.365.434-.7a207.957 207.957 0 0 0 1.598-2.603c.289-.48.561-.93.817-1.35L41.62 7h5.047l-3.904 6.368c-.12.19-.189.407-.197.632.013.235.095.461.236.65Z"/><path fill="#D4EEFC" d="M63.138 7.063H52v1.733h4.538v12.252h2.08V8.796h4.52V7.063ZM67.2 10.933c-.37.1-.724.252-1.05.453-.338.21-.65.458-.931.74-.047.046-.093.098-.14.147v-1.468l-2.02.296v9.947h2.02v-7.442a5.131 5.131 0 0 1 1.08-.575c.206-.079.413-.148.625-.206a4.23 4.23 0 0 1 1.387-.148l.238-1.852a3.804 3.804 0 0 0-1.209.108ZM78.576 19.807a.906.906 0 0 1-.773-.315 1.687 1.687 0 0 1-.218-1.044l.04-4.058a4.707 4.707 0 0 0-.159-1.26 3.08 3.08 0 0 0-.476-1.005 2.68 2.68 0 0 0-.822-.729 4.214 4.214 0 0 0-1.199-.453 7.112 7.112 0 0 0-1.566-.157c-.417 0-.834.026-1.248.078a8.612 8.612 0 0 0-1.16.227c-.353.095-.7.21-1.04.344l-.238 1.675a11.715 11.715 0 0 1 1.804-.493 7.2 7.2 0 0 1 .822-.108c.27-.02.538-.03.803-.03a4.46 4.46 0 0 1 1.199.138c.285.071.548.214.763.414.19.195.328.436.396.7.085.324.125.659.12.994l-.003.493-2.317.155a6.193 6.193 0 0 0-2.299.513 3.29 3.29 0 0 0-1.357 1.093 2.535 2.535 0 0 0-.446 1.448c-.004.484.116.962.347 1.388.242.438.607.798 1.05 1.034a3.55 3.55 0 0 0 1.754.394c.57.013 1.139-.08 1.675-.275a3.86 3.86 0 0 0 1.248-.788c.137-.131.267-.269.39-.413.038.204.111.4.215.58.176.302.448.537.772.67a2.91 2.91 0 0 0 1.13.207c.119 0 .235-.004.347-.01.11-.006.22-.023.327-.05.106-.026.201-.049.287-.068.078-.018.154-.04.228-.07l.219-1.319c-.11.037-.223.064-.338.079-.092.013-.184.02-.277.02Zm-2.97-1.197c-.101.113-.212.217-.33.31a3.816 3.816 0 0 1-.694.434 3.13 3.13 0 0 1-.773.256 4.39 4.39 0 0 1-.842.079 2.25 2.25 0 0 1-.942-.178 1.29 1.29 0 0 1-.584-.502 1.464 1.464 0 0 1-.198-.778c-.02-.328.071-.654.257-.926.216-.25.508-.423.832-.492a6.08 6.08 0 0 1 1.546-.158h1.736l-.008 1.955ZM86.037 6.334a6.491 6.491 0 0 0-1.298-.118 4.014 4.014 0 0 0-1.268.197 2.75 2.75 0 0 0-1.04.62 2.888 2.888 0 0 0-.694 1.054 4.09 4.09 0 0 0-.248 1.497v1.418h-1.486v1.537h1.486v8.509h2.021v-8.51h2.775v-1.536H83.51V9.367a1.837 1.837 0 0 1 .11-.66c.064-.178.17-.34.306-.472a1.21 1.21 0 0 1 .506-.276c.222-.061.453-.091.683-.089.16 0 .31.007.457.02.145.013.287.033.426.06.139.025.27.052.396.078.112.022.221.055.327.098l-.08-1.635a4.789 4.789 0 0 0-.604-.157ZM88.246 21.048h2.022V10.805l-2.022.296v9.947ZM89.98 6.678a1.29 1.29 0 0 0-.683-.187 1.339 1.339 0 0 0-.694.187c-.206.12-.38.29-.505.493-.126.204-.191.44-.189.68-.002.242.063.48.189.689.121.206.296.376.505.492.212.119.451.18.694.178.24.002.476-.059.684-.178.203-.117.371-.287.485-.492.12-.21.18-.448.178-.69a1.323 1.323 0 0 0-.178-.68 1.396 1.396 0 0 0-.485-.492ZM101.98 11.002h-2.477l-3.391 3.703h-.731V6.176l-2.022.296v14.576h2.022v-4.826h.033l4.049 4.826h2.616l-4.807-5.384 4.708-4.662ZM107.676 15.612l4.708-4.662h-2.477l-3.391 3.704h-.731v-8.53l-2.021.296v14.576h2.021v-4.825h.033l4.049 4.825h2.616l-4.807-5.384Z"/></svg>
